foodtherapy/img/home/icon.svg

<svg width="70" height="70" viewBox="0 0 70 70" fill="none" xmlns="http://www.w3.org/2000/svg">
<rect width="70" height="70" rx="35" fill="#D3E7E4"/>
<path d="M35.44 34.1C35.44 34.1 34.3188 26.5679 42.9816 26.5679C51.6443 26.5679 50.5232 35.3553 50.5232 35.3553C50.5232 35.3553 50.625 39.1967 42.9816 46.6535C36.5235 52.9541 35.44 52.8913 35.44 52.8913" stroke="#008B77" stroke-width="1.89208" stroke-linecap="round" stroke-linejoin="round"/>
<path d="M35.4059 34.1113C35.4059 34.1113 36.5221 26.5679 27.8983 26.5679C19.2744 26.5679 20.3893 35.3666 20.3893 35.3666C20.3893 35.3666 20.2888 39.213 27.8983 46.6798C34.3275 52.988 35.4059 52.9252 35.4059 52.9252" stroke="#008B77" stroke-width="1.89208" stroke-linecap="round" stroke-linejoin="round"/>
<path d="M35.4397 34.1C35.4397 34.1 34.1828 30.334 36.6967 29.0786" stroke="#008B77" stroke-width="1.89208" stroke-linecap="round" stroke-linejoin="round"/>
<path fill-rule="evenodd" clip-rule="evenodd" d="M34.1829 29.0794C43.6627 31.1457 41.7245 17.7812 41.7245 17.7812C41.7245 17.7812 29.5172 23.1328 34.1829 29.0794Z" stroke="#008B77" stroke-width="1.89208" stroke-linecap="round" stroke-linejoin="round"/>
<path d="M35.4398 26.5683C35.4398 26.5683 34.6379 26.1138 39.2106 21.5469" stroke="#008B77" stroke-width="0.946038" stroke-linecap="round" stroke-linejoin="round"/>
</svg>

<svg width="70" height="70" fill="none" xmlns="http://www.w3.org/2000/svg"><rect width="70" height="70" rx="35" fill="#D3E7E4"/><path d="M35.44 34.1s-1.121-7.532 7.542-7.532c8.662 0 7.541 8.787 7.541 8.787s.102 3.842-7.541 11.299c-6.459 6.3-7.542 6.237-7.542 6.237" stroke="#008B77" stroke-width="1.892" stroke-linecap="round" stroke-linejoin="round"/><path d="M35.406 34.111s1.116-7.543-7.508-7.543-7.509 8.799-7.509 8.799-.1 3.846 7.51 11.313c6.428 6.308 7.507 6.245 7.507 6.245M35.44 34.1s-1.257-3.766 1.257-5.021" stroke="#008B77" stroke-width="1.892" stroke-linecap="round" stroke-linejoin="round"/><path clip-rule="evenodd" d="M34.183 29.08c9.48 2.066 7.541-11.299 7.541-11.299s-12.207 5.352-7.541 11.298z" stroke="#008B77" stroke-width="1.892" stroke-linecap="round" stroke-linejoin="round"/><path d="M35.44 26.568s-.802-.454 3.77-5.021" stroke="#008B77" stroke-width=".946" stroke-linecap="round" stroke-linejoin="round"/></svg>
